X:1
T:Symphnie No.1
T:Symphnie No.1
T:G.Mahler
C:G.Mahler
%%score { ( 1 4 ) | ( 2 3 ) } { ( 5 8 ) | ( 6 7 ) }
L:1/8
Q:1/4=80
M:4/4
K:F
V:1 treble nm="Piano" snm="Pno."
V:4 treble 
V:2 treble 
V:3 treble 
V:5 bass nm="Piano" snm="Pno."
V:8 bass 
V:6 bass 
V:7 bass 
V:1
!pp!!8va(! [a'a'']8- | [a'a'']8- | [a'a'']8 | [a'a'']8- | [a'a'']8- | [a'a'']8 | [a'a'']8- | %7
 [a'a'']8!8va)! | [aa']8-[Q:1/4=100] | [aa']8- | [aa']8- | [aa']8[Q:1/4=92][Q:1/4=84] | %12
[Q:1/4=80] [aa']8- |[Q:1/4=60] [aa'-]8 | a'8- | a'8 |[Q:1/4=80]!pp!!8va(! [a'a'']8- | [a'a'']8- | %18
 [a'a'']8- | [a'a'']8 | [a'a'']8!8va)! |[Q:1/4=100] a8- | a8 | a8-[Q:1/4=104][Q:1/4=110] | %24
[Q:1/4=118] a4 z2 .a!p!e- | e4 z4 |[Q:1/4=60] z8 |[Q:1/4=80] z8 | z8 | z4[Q:1/4=112] .d'!p! a2 z | %30
 .d'!p! a2 z .d'!p! a2 z |[Q:1/4=80] .d'!p! a3- a4 | a'8- | a'8 | a'8 | %35
[Q:1/4=112] z3/2!pp! A/4A/4 (3(.A.^F.A) (3(.d.A.d) (3(.e.d.e) | ^fz/[fa]/ !^![fa]6- | %37
[Q:1/4=60] [fa]4 [B^c-e-g-]4 | ([ceg]8 |[Q:1/4=80] [d^f]4) z4 | a'8- | a'8 | a'8 | %43
[Q:1/4=110]!8va(! a''8- | a''8 | a''8!8va)! |[Q:1/4=80] z8 | z8 | z8 | z8 |!p! A2 E2 F2 C2 | z8 | %52
 !^!A2 E2 !^!A2 E2 | !^![FA]2 [CE]2 !^![FA]2 [CE]2 |!pp! (B2 A) z!p! (!^!A2 E2-) | E4 (!^!A2 E2- | %56
 E) z z2 .A E3- | E3 z .A E3 ||[K:D][M:2/2][Q:1/4=120][Q:1/2=80] E4- E4- | A8- | A4!ppp! A4- | %61
 A8- |: A8- | A2 z4 z2 | z8 | z8 | z8 | z8 | z8 | z8 | z4!pp! .a2 .e2 | z4 .a2 .e2 | z4 .a2 .e2 | %73
 .a2 .e2 z4 | z8 | z4 (f2 ^ga | ^g2 f2 e2 c2 | e4) (f^gfg | efef cdcd | e2) (f^g{/b} agaf | %80
 edec A^GAF | E) z z2 z4 | z8 | z8 | z8 | z8 | z8 |!p! !^!e4 !^!e4 | (!^!e4- ef^ga | b4 c'bc'a | %90
 ^g2 ab agaf | e4) (c^def | e4) (f^gac' | b4) (!^!ba)(^ga) | b4 (!^!ba)(^ga) | (b4 c'^d'c'd' | %96
 bc'bc' ^gaga | b4)!p! (^g2 a2 | b2 ^g'2 e'2 c'2 | b4)!pp! (a^gfc' | a4) (a^gfc' | a4) (c'^d'bc' | %102
 ab^ga fgBg | e4) (^gfec' | b4) (e'f'c'e' | bc'^gb efce | Bc^GB) z4 | z8 | z8 | z4!p! (f2 ^ga | %110
 ^g2 f2 e2 c2 | d4) (e2 f^g | f2 e2 d2 B2 | c4) (d2 ef |!ppp! e8-) | e8 | z8 | z8 | z8 | %119
 z4 z2!p! (A2 |[Q:1/2=88] .^A) z z .B (B4 | .^B) z z"_cresc." .c (c4 | .c) z (d2 .d) z (^d2- | %123
 d[Q:1/2=94]ef^g bagf) |!mf! (!^!d'2!>(! ^g2 (3fgf!>)!!<(! (e2)!<)! | %125
!f! e'3)!>(! (^d' =d'c'ba!>)! | ^abc'b =a^gfe | a3 ^g fedc | %128
!mf![Q:1/2=100] .[fa]) z .[^e^g].[fa] .[df] z .[ce].[df] | .d z!<(! .c.d .B z .^A.B!<)! | %130
!f! (!^!^Gf) f2- .f z (!^!Af) | .f z (!^!^A.f) f4 |!<(! (!^!B.f) f2- f z (^Bf)!<)! | %133
 fe^de!<(! ^efg^g!<)! | !tenuto!a3 z!ff![Q:1/2=104] (e'f'c'f' | e'4) (e'f'c'f' | e'4) (d'e'c'd' | %137
 bc'ab ^gafg | e4) z4 | z4!ff! (A2 ^GF | ^G2 A2 B2 c2 | d2 e2 f2 ^g2 | a4)!f! (e'f'c'f' | %143
 e'4) (e'f'c'f' | e'4)!8va(! (b'c''a'b' | ^g'a'f'g' e'f'd'e'!8va)! | c'4) (e2 f^g | f2 e2 d2 c2) | %148
 z .c.B.c .d.^d.=d.^d | .e.=f.e.f .^f.^g.f.g | [Aca]2 z2!ff! (e'f'c'f' | e'4) (ef^gc' | a4) (ABcf | %153
 e4) z4 | z4!f! .a2 .e2 | z4!mf! .a2 .e2 | z8 | z8 |[Q:1/2=80] z8 |!pp! [Aa]8 |1!ppp! [aa']8- | %161
 [aa']8 :|2!ppp! [aa']8- || [aa']8 ||[M:4/4][Q:1/4=80]!8va(! [a'a'']8 | [a'a'']8 | %166
 [a'a'']6!8va)! z2 |!pp! [fc']4 [eb]2!p! (3a'e' z |!8va(! [a'a'']8- | [a'a'']8- | %170
 [a'a'']4 [a'a'']4- | [a'a'']8- |!pp! [a'a'']8 | [a'a'']8- | [a'a'']8 | [a'a'']4 [a'a'']4- | %176
 [a'a'']8- | [a'a'']8 | [a'a'']8- |!p! [a'a'']8 |!pp! [a'a'']4 [a'a'']4- |!ppp! [a'a'']8- | %182
 [a'a'']8- | [a'a'']8- | [a'a'']8!8va)! | [aa']8- |!p! [aa']8 | [aa']8- | [aa']8- | %189
 [aa']8[Q:1/4=72] |!pp! (a4 e4 | =f4 =c4 | d4 A4- | A8) | [aa']8- | [aa']8 | %196
 z2 (3.d'.a z z2 (3.d'.a z | z2 (3.e'.a z z2 [aa']2- | [aa']8- | [aa']8 |!pp! a'8- | a'8 | %202
!ppp! a'8 | a'8 |!pp! [da]8- | [da]8 |!p! a'8- | a'8 || %208
[M:2/2][Q:1/2=80]!p! .[d'f'a'].a!pp! !///-![d'f'a']3 a3 |!p! .d'.a!pp! !///-![d'f'a']3 a3 | %210
 !///-![d'f'a']2 a2 !///-![d'f'a']2 a2 | !///-![d'f'a']2 a2 !///-![d'f'a']2 a2 | %212
!p! .d'.a!pp! !///-![d'f'a']3 a3 | !///-![d'f'a']2 a2 !///-![d'f'a']2 a2 | %214
 !///-![d'f']2 [fa]2 !///-![d'f']2 [fa]2 | !///-![ad']2 [df]2 !///-![ad']2 [df]2 | %216
 !///-![ad']2 f2 !///-![ad']2 f2 | !///-!a2 f2 !///-!a2 f2 | !///-!a2 f2 !///-!a2 f2 | %219
 !///-!f2 d2 z2 (a/b/f/b/ | !tenuto!a2) (a/b/f/b/ !tenuto!a2) (a/b/f/b/ | %221
 !tenuto!a4) z2[Q:1/2=92] (a/b/f/b/ | a4) z2 (a/b/e/b/ | a4) z2 (a/b/a/b/ | %224
 !tenuto!a2) (a/b/a/b/ !tenuto!a2) (a/b/a/b/ | a>b a/b/a/b/ a) z!p! (!tenuto!A2 | %226
 A2 g2 !tenuto!f2 !tenuto!g2 | f3 d .A) z (!tenuto!f2 | e4 fefd | c2 de dcdB | A4) (F^GAB | %231
 A4) z4 | z4 (e'f'c'f' | e'4) (e'f'c'f' | e'8-) | e'8- | Te'4 (d'c'bf' | d'4) (d'c'bf' | d'4) z4 | %239
 z8 | z8 | z4 (abfa | efce A) z z2 | z8 | z4 (_a_b=fb | _a4) (a_b=fb | ._a2) !>!a4 .g.a | %247
 .=f2 .e.f ._d2 z2 | [_B=f_b]2 z2!p! (b=c'fc' | _b4) (b=c'=fc' | _b4) (b2 =c'_d' | %251
 =c'2 _b2 _a2 =f2 | _e4)!pp! (_b=c'_gc' | _b4)!p! (b=c'=fc' | _b4) z4 | z4 (=f'^f'c'=f' | %256
 _bc'fb =f) z z2 | z4 z2[Q:1/2=98]!p! .=c'2 | !^!_d'4 !^!_d'4 | (=c'_d'_e'=f' .e'2) .c'2 | %260
 !^!_d'4 !^!_d'4 | (_d'_e'_b'._a') .a' z (a'2 | .g') z z .e' =f'4- | .f' z z .d' _e'4- | %264
 .e' z (_d'c' .d'2) .=f'2 |!<(! (g_a_ba .g2) .=f2!<)! |!mf! !^!_d'4 !^!_d'4 | %267
!>(! (=c'_d'_e'=f' .e'2) ._a'2!>)! |!p! !^![f_d']4!<(! !^![g_d']4 | ([_a=c']bc'_b .a2) (a2!<)! | %270
!mf! _a'2)!>(! .[gg'].[_aa'] .[=f=f']2 .[ee'].[ff']!>)! |!<(! ._d'2 .=c'.d' ._b2 .a.b!<)! | %272
!f! (g.=f') f'4 (_a.f') | .=f'2 (=c'.f') f'4 | (_b.=f') f'4!mf! ([f'a'][e'^g'] | %275
 .[=f'a']2) ([af'][^ge']!p! [af']4) | z8 |!>(! (!-)!g3 f =fed=c)!>)! |!p!!<(! (cded =cBAG!<)! | %279
!>(! !^!=c3 B AG=FE)!>)! |!pp! [A=c]6 .B.c | .A2 .^G.A .=F2 z2 | z8 | z4!p! .=f2 .=c2 | %284
 .=f2 .g2 .a2 ._b2 | =c'8- | c'8- | c'4 (d'e'd'e' | =c'd'c'd' a_bab | =c'8-) | c'8- | %291
 c'4 (=c'd'ad' | =c'4) (c'd'gd' | =c'4)!p! (d2 e=f | e2 d2 =c2 d'2 | =c'8) | z2 .g2 .a2 ._b2 | %297
 =c'8- | c'8 | z4!pp! (=cdAd | =c4) (c_dGd | =c4) (c_d_e=f | _e4) (e=fef | _e4) (e=fg_a | %304
 g4) (g_aga | g4) z2 .=c2 | (_d4 .=F2) .d2 | (=c4 .=F2) z2 | (!^!=fefe .f2) z2 | (=fefe .f2) z2 | %310
 (=f'g'f'g' f'2) z2 | (=f'g'f'g' f'2) z2 | z8 | (=f'g'f'g' f'2) z2 | z8 | (=f'g'f'g' f'2) .=F2 | %316
!<(! .e2 .=f2 !tenuto!_g2 .f.e!<)! |!ff!!>(! (!^!=f4!>)!!p! .=F) z .f/ z/ z | %318
 ([=f_a]4 .=F) z .a/ z/ z | ([=f=c']4 =F) z c'/ z/ z | ([=f=f']4 .f) z .[ff']/ z/ z | %321
 ([=f=f']4 .f) z .[ff']/ z/ z | ([=f=f']4 .f) z!p![Q:1/2=92] !tenuto![ff']2 | %323
!<(! !///-!_g2[Q:1/2=70] _g'2!<)!!>(! !///-!g2 g'2!>)! | %324
 [=f=f'] z/!ff! ._A/4.A/4 (3.A.=F.A (3._d.A.d (3._e.d.e | =fz/[f_a]/ [fa]4- [fa]2 | %326
 ([=f=f']4 .f) z!p! !tenuto![ff']2 |!<(! !///-!_g2 _g'2!<)!!>(! !///-!g2 g'2!>)! | %328
 ([=f=f']4 .f) z!p! .f2 |[Q:1/2=92] !^!g4 !^!_a4 | (!^!=c'4 .=f2) .f2 |!<(! !^!g4 !^!_a4!<)! | %332
 (!^!=c'4 .=f2) .f2 | (!^!=f'4 .=f2) .f2 | (!^!=f'4 .=f2) (f2 | %335
!<(! !tenuto!_g'4) !tenuto!=f'4!<)! |!f!!>(! (!^!=c'4!>)!!p! .=f) z (f2 | %337
!<(! !tenuto!_g'4) !tenuto!=f'4!<)! |!f!!>(! (!^!=c'4!>)!!p! .=f) z!pp! f2 | %339
 !tenuto!_g'4 !tenuto!=f'4 |"_cresc." !tenuto![_g_g']4 !tenuto![=f=f']4 | %341
 !tenuto![_g_g']4 !tenuto![=f=f']4 | !tenuto![_g_g']4 !tenuto![=f=f']4 | %343
 !tenuto![_g_g']4 !tenuto![=f=f']4 | !tenuto![_g_g']4 !tenuto![=f=f']4 | %345
!mf![Q:3/4=63]"_cresc." !^![aa']8 | !^![ff']8 |[Q:1/2=60] !^![aa']8 | !^![ff']8 | %349
!<(! !///-!a2 a'2 !///-!a2 a'2 | !///-!a2 a'2 !///-!a2 a'2!<)! | %351
!ff!!<(! !///-!a2 a'2 !///-!a2 a'2 | !///-!a2 a'2 !///-!a2 a'2!<)! | %353
!ff![Q:1/2=66] !^![aa'] z/ A/4A/4 (3!^!A!^!F!^!A (3!^!d!^!A!^!d (3!^!e!^!d!^!e | %354
 fz/[fa]/ [fa]2- [fa] z/ .a/4.a/4 (3.a.e.a | e'>.a (3.a.e.a e'>.a (3.a.e.a | %356
 e'>.a e'>.a e'>.a e'>.a |!fff! !///-![aba']2 b'2 !///-![aba']2 b'2 | %358
 !///-![aba']2 b'2 !///-![aba']2 b'2 |!ff![Q:1/2=80]{/a'^g'a'} !^!d'8 | !^!a8 | !^!d'8 | %362
 !^!a4 z2 .d' z | .a z z2 z2 .d' z | .a z z2 z2!f! .d z |[Q:1/2=92] (!^!e4 A) z .e z | %366
 (!^!f4 .A) z (f2 | g2 f2 g2 e2 | d4 .A) z (d2 | c2 d2 c2!>(! b2 | a2 f2 e2 d2!>)! |!p! e4) z4 | %372
 z8 | (e'f'c'f' e'4) | (e'f'c'f' e'4) | (e'f'c'f' e'4-) | e'8 | (e'f'c'f' e'4) | (d'c'ba ^gbaf | %379
 e) z z2!mf![Q:1/2=98]!<(! (d2 c2 | B4) (e2 d2 | c4)!<)!!f![Q:1/2=108]!<(! (f2 e2 | %382
 d4)!<)!!ff!!<(! (g2 f2 | (e4) a4-) | a2!<)! z2!fff![Q:1/2=112] .!^!d2 .!^!A2 | %385
 .!^!d2 .!^!e2 .!^!f2 .!^!g2 | a4 (b2 c'd' | c'2 b2 a2 f2 | g4) (a2 bc' | b2 a2 g2 e2 | %390
 f4) (g2 ab | agfe dcBA) | (dcBA) z2!ff! .d2 | (e4 .A2) .e2 | (f4 .A2) (f2 | g2 f2 g2 e2 | %396
 !^!b4 .f2)!<(! (f2 | _b2 a2 b2 g2!<)! |!>(! !^!d'4 .a2)!>)!!ff! (a2 | d'2 c'2 d'2 ^g2 | %400
 a2 f2 a2 b2) | (a4 .e2) (b2 | a4 .f2) (b2 | a2 gf g2 e2 | d'4 .a2) (d'c' | b4) (b2 c'b | %406
 a4) (a2 ba | g3) .a g3 .a | .g2!<(! .a.b .c'.d'.e'.f'!<)! | %409
!ff! (g'2 !tenuto!c'2) (3(bc'b !tenuto!a2) | (!^!a'3 ^g' =g'f'e'd') | (^d'e'f'e') (=d'c'ba) | %412
 (d'3 c' bagf | .d'2) .c'.d' .b2 .^a.b | .g2 .f.g .e2 .^e.b |!<(! Ta8!<)! | %416
!ff! g!<(!fef gabc'!<)! |!ff![Q:1/2=118] d'2 z2 (!^!a'b'f'b' | a'4) (!^!a'b'f'b' | %419
 a'4)!f! (g'a'f'g' | e'f'd'e' c'd'bc' | a4) z4 | z4!ff! (!^!d2 cB | c2 d2 e2 f2 | g2 a2 b2 c'2 | %425
 d'2) z2!f! (!^!a'b'f'b' | a'4) (!^!a'b'f'b' | a'4) (e'f'd'e' | c'd'bc' abga | f4) z4 | z8 | %431
 z fef g^g=g^g | a_bab =bc'bc' | d'2 z2!fff! (!^!a'b'f'b' | a'4) (!^!abc'f' | d'4) (!^!defb | %436
 a4) (!^!ABcf | d4) .d'2 .a2 | .d'2 .a2 z4 | z8 | z8 | z8 | z8 | z8 | z8 | z4!ff! .g'.f'.e'.f' | %446
 z8 | z2 .g'.f' .e'.^d'.e'.f' | .g'.a' .b'2 z4 | z8 | z4 (b'c''a'b' | g'a'f'g' e'f'af' | %452
 .d'2) z2 z4 |] %453
V:2
 [Aa]8- | [Aa]8 | ([Aa]4 [Ee]4) | z8 | (A4 E4) | z8 | (a4 e4 | f4 c4 | d4 B4-) | B8- | B4 B4- | %11
 B8- | (B4 =B4-) | B8 |!<(! ([ce]4!<)!!>(! !^![ac']4-)!>)! | [ac']4 z4 | [Aa]8 | ((a'4 e'4) | %18
 f'4 c'4 | d'4 b4 | a8) | e4- e3/2.e/4.e/4 (3(.e.e.e) | e4- e3/2.e/4.e/4 (3(.e.e.e) | %23
 !tenuto!^f>.e !tenuto!e>.d !tenuto!d>.e !tenuto!e>.f | (3(.^f.e.d) (3(.f.e.d) ez/e/ e z | z8 | %26
!ppp! a8 | (a4 e4 | f4 c4 | d8 | A8) | z8 | z8 | z8 | z8 | z2 .^F z .F z .A z | .d z [c_e]6- | %37
 [ce]4 z4 | z8 | z8 | z8 | z8 | z8 | z8 | z4!>(! .d' a2!>)! z |!>(! .d' a2!>)! z!>(! .d' a2!>)! z | %46
 .!^!d' a2 z z4 | z8 |!p! (A4 E4 | F4 C4 | D4 A,4) | z4 (A2 E2 | F2 C2 [DF]2 [A,C]2 | D2 A,4) A,2 | %54
 !^!D2 A,6 | !^!D2 A,6 | .!^!DA,- A,4!pp! A,2 | .!^!DA,- A,4!pp! A,2 || %58
[K:D][M:2/2] A,3 z!p! .D2 .A,2 | z4 .D2 .A,2 | z4 .D2 .A,2 |!ppp! .D2 .A,2 z4 |: z8 | z8 | z8 | %65
 z8 | z8 | z8 | z8 | z8 | z8 | z8 | z8 | z4 .A2 .E2 | .A2 .B2 .c2 .d2 | !^!e8- | e2 z2 z4 | z8 | %78
 z8 | z8 | z8 | z8 | z8 | !^!E4 !^!E4 | (!^!E4- EF^GA | !^!B4) !^!B4 | (!^!B3 c AECD | E2) z2 z4 | %88
 (!^!d3 c BA^GF | E8) | B4 A4 | B4 A4 | B4 c4 | (e4 B4) | (e4 B4) | (e4 B4-) | B8- | B4 (c2 ^de | %98
 ^d2 c2 B2 ^G2 | [AB]8) | [AB]8- | [AB]8 | [^GB]3 z .e2 .B2 | z4 .e2 .B2 | z8 | z8 | z8 | z8 | z8 | %109
 z8 | z8 | z8 | z8 | z8 | z8 | z8 | z8 | z8 | z8 | z8 | z8 | z8 | z2 (!>!BA^GF) (=cB | %123
 A^GBd) (G2 F2) | Te6 z2 | Te8 | (^e2 f2 =e4) | [Ac]6 z2 | z8 | .F z .^E.F .F z .G.F | %130
 z2 ^G2- .G z z2 | .A z z2 ^A4 | z2 B z ^B z z2 | z4 z (edB | .A2) z2 (efcf | e4) (efcf | e4) z4 | %137
 z8 | z4!f!!>(! (fefe | dcdc)!>)! z4 | z8 | z8 | z4!ff! .!^!A2 .!^!E2 | %143
 .!^!A2 .!^!B2 .!^!c2 .!^!d2 | !^!e8- | e2 z2 z4 | z8 | z8 | (B2 A2 ^G2 F2 | E2 D2 C2 B,2 | %150
 A,2) z2 (efcf | e4) (EF^Gc | A4) z4 | z4!mf! (EF^Gc | A4) z4 | z8 | z4 .A2 .E2 | .A2 .E2 z4 | %158
 z4!p! .a2 .A2 | z4 .A2 .A,2 |1 z8 | z8 :|2 z8 || z8 ||[M:4/4] z8 | z8 | %166
 z2!p! (a/b/f/b/ !tenuto!a2) (a/b/f/b/ | a2) z2 z4 | z2 (3.a'.e' z (3.a'.e' z (a/b/f/b/ | %169
 a4)!pp! ([fc']4 | .[eb]) z!p! (a/>b/f/b/ !tenuto!a2) (a/>b/f/b/ | !tenuto!a8) | .a2 z2 z4 | %173
 (3.d'.a z z2 z2 (a/>b/f/b/ | (3.[ad'])a z z2 z4 | z2 (a/b/f/b/ a4) | (a/b/f/b/ a6-) | a8- | a8 | %179
 (e'4 a2) z2 | z8 | [Aa]8- | [Aa]8 | (3z e'a z2 (3z e'a z2 | z8 | z8 | (3.d.A z z2 (3.d.A z z2 | %187
 z8 | z8 | z8 | (A4 E4 | =F4 =C4) | (=F4 .A,2) (!tenuto!F2 | E4 !breath!.A,2) (A2 | _B2 A2 G2 =FG | %195
 A4 .=F2) (FG | A4 =F2) (FG | A4 .E2)!ppp! (A2 | _B2 A2 G2 =FG | A4 .E2) z2 | a8- | a8 | %202
 [da]4 [=cg] z z2 | [da]4 [=cg] z z2 | z2 (3:2:2z2 .d .A z z2 | z2 (3:2:2z2 .d .A z z2 | %206
 z2 (3:2:2z2 .d .A z (3:2:2z2 .d | .A z (3:2:2z2 .d .A z (3:2:2z2 .d || %208
[M:2/2] [Adfa]2 z2 z2 (3:2:2z2 .d | .A z z2 z4 | z8 | z4 z2 z .d | .A z z2 z4 | z8 | z8 | z8 | z8 | %217
 z8 | z8 | z8 | z8 | z8 | z8 | z8 | z8 | z8 | A4 A4 | A4 z4 | (A4 [FA]4 | [EA]4 [EF]2 [D^G]2 | %230
 [CE]4) z4 | z4 (Bcdf | e8-) | e8- | e2 z2 (f2 ^ga | ^g2 f2 e2 c2 | B4) z4 | z8 | z8 | z8 | %240
 z4 (cBAf | e8) | z8 | z8 | [d=f_a]2 z2 z4 | z8 | z2 !>!=f4 .e.f | ._d2 .=c.d ._A2 .c.d | %248
 z4 !>!.=f2 !>!._B2 | z4 !>!.=f2 !>!._B2 | z8 | z8 | z4 (_B=c_dB | =f4) .!^!_B2 .!^!=F2 | %254
 .!^!_B2 .!^!=c2 .!^!_d2 .!^!_e2 | [_B=f]4 z2 .B2 | (=f4 _B2) .B2 | (=f4 _B2) z2 | [_e_b]4 [eb]4 | %259
 ([_e_a]_b=c'_d' .c'2) .=a2 | [_e_b]4 [eb]4 | (bc'g'.=f') .f' z (f'2 | ._e') z z .=c' ^c'4- | %263
 .c' z z .b ^b4- | .b z (=fe .f2) ._d'2 | (_e=fgf .e2) ._d2 | [_eg]4 [eg]4 | %267
 (_a_b=c'=b .c'2) .c'2 | _e4 e4 | (_ede_d .=c2) (_A2 | .[=f_a]2) .e.f ._d2 .=c.d | %271
 ._d2 .=c.d ._B2 .A.B | z2 =f4 z2 | .=f2 z2 f4 | z2 =f6- | f4!mf! !^!=f4- | (f2 B2 (3ABA !-(!G2) | %277
 G8 | A4 [=FG]4 | [EG]4 z4 | z (_BAG =F) z .^G.A | .=F2 .E.F .=C2 .E.F | =C8- | C4 .=F2 .=C2 | %284
 .=F2 .G2 .A2 ._B2 | (=c4 d2 e=f | e2 d2 =c2 A2 | =c4) (dede | =cdcd A_BAB | %289
 =c2) (de!pp!{/g} =fefd | =c_BcA =FEF) z | z4 (=cdAd | =c8-) | c8- | c2 z2 z4 | z4 .=f2 .=c2 | %296
 .=f2 z2 z2 (fg | e=fde =cdBc | _B=cAB GA=CA | [=C=F]4) z4 | z8 | z8 | z8 | z8 | z8 | z8 | _B4 z4 | %307
 _A4 z4 | (!^!=FEFE .F2) z2 | (!^!=FEFE .F2) .=c2 | (_d4 .=F2) .d2 | (=c4 .=F2) .F2 | G4 _A4 | %313
 (!^!_B4 .=F2) .F2 | _A4 _B4 | (!^!=c4 .=F2) z2 | (!^!=FEFE .F2) z2 | (!^!=FEFE .F) z z2 | %318
 (!^!=FEFE .F) z z2 | (!^!=FEFE .F) z z2 | (!^!=FEFE .F) z z2 | (!^!=FEFE .F) z z2 | %322
 (!^!=FEFE .F) z !tenuto!F2 | ([_E_G]2 [GA]4 [EG]2 | =F) z z2 .F z ._A z | .c z z2 z4 | %326
 (!^!=FEFE .F) z !tenuto!F2 | ([_E_G]2 [GA]4 [EG]2) | (!^!=FEFE .F) z .F2 | !^!G4 !^!_A4 | %330
 (!^![=F=c]4 .F2) .F2 | !^!G4 !^!_A4 | (!^![=F=c]4 .F2) .F2 | (!^![=F=c=f]4 .F2) .F2 | %334
 (!^![=F=c=f]4 .F2) (F2- | !tenuto!_g4) !tenuto!=f4 | (!^![=F=c]4 .F) z (F2- | %337
 !tenuto!_g4) !tenuto!=f4 | (!^![=F=c]4 .F) z F2- | !tenuto!_g4 !tenuto!=f4 | [_G,_G]8- | [G,G]8 | %342
 [G,=FG]8 | [_A,=F_A]8- | [A,FA]8 | !^![A,A]8 | !^![F,F]8 | !^![A,A]8 | !^![F,F]8 | %349
 [A,A]6 (3[A,A][A,A][A,A] | [A,A]6 (3[A,A][A,A][A,A] | [A,A]6 (3[A,A][A,A][A,A] | %352
 [A,A]6 (3[A,A][A,A][A,A] | z4 F z A z | d z z2 z4 | %355
 (3z .[Ae].[df] .[df] z (3z .[Ae].[df] .[df] z | [df]>.e [df]>.e [df]>.e [df]>.e | !^![df]8 | %358
 !^![Ae]4- [Ae] z !^!A z | !^!d8 | !^!A8 | !^!d8 | !^!A4 z2 .d z | z4 z2 .d z | z8 | z8 | z8 | z8 | %368
 z8 | z8 | z8 | z4 (fefd | c2 de dcdB | A4) (a^gaf | e4) (c'bc'a | e4) (c'a^gb | afe^g fdce | %377
 d4) (f^gfe- | [de]8) | z8 | z8 | z8 | z8 | !^!_B4 !^!=B4- | (B2 cB [FA]2 [EG]2) | %385
 .!^!D2 .!^!E2 .!^!F2 .!^!G2 | !^!A4 (B2 cd | c2 B2 A2 F2 | G4) (A2 Bc | B2 A2 G2 E2 | F4) (G2 AB | %391
 TA4) z4 | z4 (GFED) | !^![GA]4 z4 | !^!A4 z4 | !^![GA]8 | !^!A4 z4 | (_B2 A2 B2 G2 | %398
 [Ad]4 .A2) (A2 | d2 c2 d2 ^G2 | A2) z2 z4 | z8 | z8 | z8 | z4 z2 (ba | g4) (g2 ag | f8) | z8 | %408
 z2 .A.B .c.d.e.f | (g2 !tenuto!c2) (3(BcB !tenuto!A2) | (!^!a3 ^g =gfed) | (^defe) (=dcBA) | %412
 d z2 z z4 | .b2 .^a.b .g2 .f.g | .B2 .^A.B z2 .^G2 | .A z AB cdef | z4 z ABc | d2 z2 (!^!abfb | %418
 a4) (!^!abfb | a4) z4 | z8 | z4!>(! (!^!baba | gfgf)!>)! z4 | z8 | z8 | z4 .!^!d2 .!^!A2 | %426
 .!^![Dd]2 .!^![Ee]2 .!^![Ff]2 .!^![Gg]2 | !^![Aa]8- | [Aa]2 z2 z4 | z4!ff! (a2 bc' | %430
 b2 a2 g2 f2) | !tenuto!e2 !tenuto!d2 !tenuto!c2 !tenuto!B2 | %432
 !tenuto!A2 !tenuto!G2 !tenuto!F2 !tenuto!E2 | [DFA]2 z2 (!^!abfb | a4) (!^!ABcf | d4) (!^!DEFB | %436
 A4) z4 | z8 | z4 .d2 .A2 | .d2 .A2 z4 | z8 | z8 | z8 | z8 | z8 | z4 .g.f.e.f | z8 | %447
 z2 .g.f .e.^d.e.f | .g.a .b2 z4 | z8 | z4 (bc'ab | gafg efAf | .d2) z2 z4 |] %453
V:3
 x8 | x8 | x8 | x8 | x8 | x8 | x8 | x8 | x8 | x8 | x8 | x8 | x8 | x8 | x8 | x8 | x8 | x8 | x8 | %19
 x8 | x8 | x8 | x8 | x8 | x8 | x8 | x8 | x8 | x8 | x8 | x8 | x8 | x8 | x8 | x8 | x8 | x8 | x8 | %38
 x8 | x8 | x8 | x8 | x8 | x8 | x8 | x8 | x8 | x8 | x8 | x8 | x8 | D2 A,6 | x8 | x4 D2 x2 | x8 | %55
 x8 | x8 | x8 ||[K:D][M:2/2] x8 | x8 | x8 | x8 |: x8 | x8 | x8 | x8 | x8 | x8 | x8 | x8 | x8 | x8 | %72
 x8 | x8 | x8 | [EA]2 z2 z4 | x8 | x8 | x8 | x8 | x8 | x8 | x8 | x8 | x8 | x8 | x8 | x8 | x8 | %89
 (B4 A4 | E8- | E4) x4 | x8 | B2 z2 z4 | x8 | x8 | x8 | x8 | x8 | E2 z2 z4 | x8 | x8 | x8 | x8 | %104
 x8 | x8 | x8 | x8 | x8 | x8 | x8 | x8 | x8 | x8 | x8 | x8 | x8 | x8 | x8 | x8 | x8 | x8 | x8 | %123
 x8 | x8 | x8 | d8 | x8 | x8 | x8 | x8 | x8 | x8 | c4 B4 | x8 | x8 | x8 | x8 | x8 | x8 | x8 | x8 | %142
 x8 | x8 | x8 | x8 | x8 | x8 | E8 | x8 | x8 | x8 | x8 | x8 | x8 | x8 | x8 | x8 | x8 | x8 |1 x8 | %161
 x8 :|2 x8 || x8 ||[M:4/4] x8 | x8 | x8 | x8 | x8 | x8 | x8 | x8 | x8 | x8 | x8 | x8 | x8 | x8 | %178
 x8 | x8 | x8 | x8 | x8 | x8 | x8 | x8 | x8 | x8 | x8 | x8 | x8 | x8 | x8 | x8 | x8 | x8 | %196
 =F4 A,2 !tenuto!F2 | (E4 .A,2) x2 | x8 | x8 | x8 | x8 | x8 | x8 | x8 | x8 | x8 | x8 ||[M:2/2] x8 | %209
 x8 | x8 | x8 | x8 | x8 | x8 | x8 | x8 | x8 | x8 | x8 | x8 | x8 | x8 | x8 | x8 | x8 | x8 | x8 | %228
 x8 | x8 | x8 | x8 | c4 z4 | x8 | x8 | x8 | x8 | x8 | x8 | x8 | x8 | x8 | x8 | x8 | x8 | x8 | x8 | %247
 x8 | x8 | x8 | x8 | x8 | x8 | x8 | x8 | x8 | x8 | x8 | x8 | x8 | x8 | x8 | x8 | x8 | x8 | x8 | %266
 x8 | x8 | x8 | x8 | x8 | x8 | x8 | x8 | x8 | x8 | x8 | x8 | x8 | x8 | x8 | x8 | x8 | x8 | x8 | %285
 x8 | x8 | x8 | x8 | x8 | x8 | x8 | x8 | x8 | x8 | x8 | x8 | x8 | x8 | x8 | x8 | x8 | x8 | x8 | %304
 x8 | x8 | x8 | x8 | x8 | x8 | x8 | x8 | x8 | x8 | x8 | x8 | x8 | x8 | x8 | x8 | x8 | x8 | x8 | %323
 x8 | x8 | x8 | x8 | x8 | x8 | x8 | x8 | x8 | x8 | x8 | x8 | F8 | x8 | F8 | x8 | F8 | x8 | x8 | %342
 x8 | x8 | x8 | x8 | x8 | x8 | x8 | x8 | x8 | x8 | x8 | x8 | x8 | x8 | x8 | x8 | x8 | %359
 [FA] z z2 z4 | x8 | x8 | x8 | x8 | x8 | x8 | x8 | x8 | x8 | x8 | x8 | x8 | x8 | x8 | x8 | x8 | %376
 x8 | x8 | x8 | x8 | x8 | x8 | x8 | x8 | x8 | x8 | A8- | A4 z4 | A4 A4- | A8 | A4 G4 | x8 | x8 | %393
 x8 | x8 | x8 | x8 | x8 | x8 | ^G6 z2 | x8 | x8 | x8 | x8 | x8 | x8 | x8 | x8 | x8 | x8 | x8 | %411
 B4 A4 | x8 | x8 | x8 | x8 | x8 | x8 | x8 | x8 | x8 | x8 | x8 | x8 | x8 | x8 | x8 | x8 | x8 | x8 | %430
 x8 | [GA]8 | x8 | x8 | x8 | x8 | x8 | x8 | x8 | x8 | x8 | x8 | x8 | x8 | x8 | x8 | x8 | x8 | x8 | %449
 x8 | x8 | x8 | x8 |] %453
V:4
!8va(! x8 | x8 | x8 | x8 | x8 | x8 | x8 | x8!8va)! | x8 | x8 | x8 | x8 | x8 | x8 | x8 | x8 | %16
!8va(! x8 | x8 | x8 | x8 | x8!8va)! | x8 | x8 | x8 | x8 | x8 | x8 | x8 | x8 | x8 | x8 | x8 | x8 | %33
 x8 | x8 | x8 | x8 | x8 | x8 | x8 | x8 | x8 | x8 |!8va(! x8 | x8 | x8!8va)! | x8 | x8 | x8 | x8 | %50
 x8 | x8 | x8 | x8 | x8 | x8 | x8 | x8 ||[K:D][M:2/2] z4 A4 | E8- | E6 z2 | x8 |: x8 | x8 | x8 | %65
 x8 | x8 | x8 | x8 | x8 | x8 | x8 | x8 | x8 | x8 | x8 | x8 | x8 | x8 | x8 | x8 | x8 | x8 | x8 | %84
 x8 | x8 | x8 | (!^!d2 .E2) (!^!d2 .E2) | x8 | x8 | x8 | x8 | x8 | x8 | x8 | x8 | x8 | x8 | x8 | %99
 x8 | x8 | x8 | x8 | x8 | x8 | x8 | x8 | x8 | x8 | x8 | x8 | x8 | x8 | x8 | x8 | x8 | x8 | x8 | %118
 x8 | x8 | x8 | x8 | x8 | x8 | x8 | x8 | x8 | x8 | x8 | x8 | x8 | x8 | x8 | x8 | x8 | x8 | x8 | %137
 x8 | x8 | x8 | x8 | x8 | x8 | x8 | x4!8va(! x4 | x8!8va)! | x8 | x8 | x8 | x8 | x8 | x8 | x8 | %153
 x8 | x8 | x8 | x8 | x8 | x8 | x8 |1 x8 | x8 :|2 x8 || x8 ||[M:4/4]!8va(! x8 | x8 | x6!8va)! x2 | %167
 x8 |!8va(! x8 | x8 | x8 | x8 | x8 | x8 | x8 | x8 | x8 | x8 | x8 | x8 | x8 | x8 | x8 | x8 | %184
 x8!8va)! | x8 | x8 | x8 | x8 | x8 | x8 | x8 | x8 | x8 | x8 | x8 | x8 | x8 | x8 | x8 | x8 | x8 | %202
 x8 | x8 | x8 | x8 | (3.d'.a z z2 z4 | (3.d'.a z z2 (3.d'.a z z2 ||[M:2/2] x8 | x8 | x8 | x8 | x8 | %213
 x8 | x8 | x8 | x8 | x8 | x8 | x8 | x8 | x8 | x8 | x8 | x8 | x8 | x8 | x8 | x8 | x8 | x8 | x8 | %232
 x8 | x8 | x8 | x8 | x8 | x8 | x8 | x8 | x8 | x8 | x8 | x8 | x8 | x8 | x8 | x8 | x8 | x8 | x8 | %251
 x8 | x8 | x8 | x8 | x8 | x8 | x8 | x8 | x8 | x8 | x8 | x8 | x8 | x8 | x8 | x8 | x8 | x8 | x8 | %270
 x8 | x8 | x8 | x8 | x8 | x8 | x8 | x8 | x8 | x8 | x8 | x8 | x8 | x8 | x8 | x8 | x8 | x8 | x8 | %289
 x8 | x8 | x8 | x8 | x8 | x8 | x8 | x8 | x8 | x8 | x8 | x8 | x8 | x8 | x8 | x8 | x8 | x8 | x8 | %308
 x8 | x8 | _b4 z4 | _a4 z4 | x8 | x8 | x8 | x8 | x8 | x8 | x8 | x8 | x8 | x8 | x8 | x8 | x8 | x8 | %326
 x8 | x8 | x8 | x8 | x8 | x8 | x8 | x8 | x8 | x8 | x8 | x8 | x8 | x8 | x8 | x8 | x8 | x8 | x8 | %345
 x8 | x8 | x8 | x8 | x8 | x8 | x8 | x8 | x8 | x8 | x8 | x8 | x8 | x8 | x8 | x8 | x8 | x8 | x8 | %364
 x8 | x8 | x8 | x8 | x8 | x8 | x8 | x8 | x8 | x8 | x8 | x8 | x8 | x8 | x8 | x8 | x8 | x8 | x8 | %383
 x8 | x8 | x8 | x8 | x8 | x8 | x8 | x8 | x8 | x8 | x8 | x8 | x8 | x8 | x8 | x8 | x8 | x8 | x8 | %402
 x8 | x8 | x8 | x8 | x8 | x8 | x8 | x8 | x8 | x8 | x8 | x8 | x8 | x8 | x8 | x8 | x8 | x8 | x8 | %421
 x8 | x8 | x8 | x8 | x8 | x8 | x8 | x8 | x8 | x8 | x8 | x8 | x8 | x8 | x8 | x8 | x8 | x8 | x8 | %440
 x8 | x8 | x8 | x8 | x8 | x8 | x8 | x8 | x8 | x8 | x8 | x8 | x8 |] %453
V:5
!pp! A,8- | A,8 | (A,4 E,4) | z8 | (A,4 E,4) | z8 | ([A,A]4 [E,E]4 | [F,F]4 [C,C]4 | %8
 [D,D]4 (3:2:4([B,,B,]) z .[D,F,]/.[D,F,]/) (3(.[D,F,].D,.F,) | %9
 (3.[F,B,].[D,F,].[F,B,] (3.[B,D].[F,B,].[B,D] (3:2:2!^![DF]2 .[B,D] (3:2:2!^![DF]2 .[B,D] | %10
 [DF]2- (3[DF].[B,D].[DF] [DF]2- (3[DF].[B,D].[DF] | %11
 (3(.[B,DF].[B,D].[D,DF]) (3(.[B,DF].[B,D].[D,DF]) [B,DF]z/[B,DF]/ [DF]2- | [B,D-F-]4 [=B,DF]4- | %13
 [B,DF]8 | C2 z2 z4 | z8 | A,8 | ([A,A]4 [E,E]4 | [F,F]4 [C,C]4 | [D,D]4 [B,,B,]4 | [A,,A,]8) | %21
[K:treble] A4- A3/2.A/4.A/4 (3(.A.A.A) | %22
 !tenuto!A3/2.A/4.A/4 (3(.A.E.A) !tenuto!A3/2.A/4.A/4 (3(.A.A.A) | %23
 !tenuto!d>.A !tenuto!A>.^F !tenuto!F>.A !tenuto!A>.d | %24
 (3(.d.A.^F) (3(.d.A.F) Az/[EA]/ !tenuto!A2 | .A!p!E- E4 z2 |[K:bass]!ppp! A,8 | ([A,A]4 [E,E]4 | %28
 [F,F]4 [C,C]4 | [D,D]8 | [A,,A,]8) |[K:treble] ([D^F]4 [^F,A,]2 [A,D]2 | [D^F]2 [^CA]4 [=B,G]2 | %33
 [A,^F]4 [G,E]2 [A,F]2 | [=B,G]2 [G=B]4 [^FA]2 | .[D^F]) z[K:bass] A,,6 | %36
 z2[K:treble] !^!AA,[K:bass] !^!A,A,, z2 |[K:treble] z8 | z2 ([GB]2 [^FA]2 [EG]2 | %39
 [D^F]4 [^F,A,]2 [A,D]2 | [D^F]2 [^CA]4 [=B,G]2 | [A,^F]4 [G,E]2 [A,F]2 | [=B,G]2 [G=B]4 [^FA]2 | %43
 .[D^F]) z/!ppp! [FA]/4[FA]/4 (3(.[FA].[DF].[FA]) !tenuto![Ad]3/2[FA]/4[FA]/4 (3(.[FA].[DF].[FA]) | %44
 !tenuto![d^f]>[Ae] !tenuto![Ae]>[df] !tenuto![df]>[Ae] !tenuto![Ae]>[df] | %45
 (3(.[d^f].[Ae].[^Fd]) (3(.[df].[Ae].[Fd]) [Ae]z/[Ae]/ !tenuto![Ae]2 | %46
!p! (A,,2 [B,,,B,,]2 [=B,,,=B,,]2 (3C,B,,A,, | B,,2 =B,,2 C,2 (3^C,B,,A,, | %48
 =B,,2 C,2 ^C,2 (3D,C,B,, | C,2 D,2 _E,2 (3=E,D,C, | D,2 E,2 F,2 (3G,F,E, | %51
 F,2 G,,2 A,,2 (3B,,A,,G,, |!pp! A,,2 B,,2 =B,,2 (3C,B,,A,, | =B,,2 C,2 D,2 (3E,D,C, | %54
 D,2 E,2 F,2 (3G,F,E, | F,2 (3G,F,E, D,2 (3E,D,C, | B,,2 (3C,B,,A,, B,,2 (3C,B,,A,, | %57
 B,,2 A,,2 B,,2 A,,2) ||[K:D][M:2/2] z8 | z8 | z8 | z4!pp! .D,2 .A,,2 |: .D,2 .E,2 .F,2 .G,2 | %63
 A,4 (B,2 CD | C2 B,2 A,2 F,2 | G,4 A,2 B,C | B,2 A,2 G,2 E,2) | (F,4 G,2 A,B, | A,4 B,2 CD | %69
 C4 D2 EF | E4-) E4- | E4 z4 | (!arpeggio!C4 D4 | C4 D4) | .C2 .B,2!p! .A,2 .E,2 | %75
!pp! .A,2 .B,2 .C2 .D2 | z4 (F2 ^GA | ^G2 F2 E2 C2 | E4) (F2 ^GA | ^G2 F2 E2 C2 | E8) | %81
 (EDEC[K:bass]!pp! A,B,CF, | E,F,C,D, E,^G,A,C) | (!>!D2 .E,2) (!>!D2 .E,2) | (!>!D3 C B,A,^G,F,) | %85
 ([DE-]8 | [CE]4) z4 | z2 .E,2 .F,2 .^G,2 | .A,2 z2 z4 | (B,4 A,4 | B,4 A,4 | B,4) B,3 z | %92
 [B,E]3 z B,3 z | [B,E]8- | [B,E]8 | [B,E]8- | [B,E]8 | [B,E]8- | [B,E]8 | B,8- | B,8- | B,8- | %102
 B,8 | B,8- | B,8- | B,3 z!mf! .E2 .B,2 | .E2 .B,2[K:treble]!pp! (EFB,F | %107
 EFB,!<(!F)!<)!!p! .A2 .E2 | .A2 .B2 .c2 .d2 | e8 | z4!pp! (F2 ^GA | ^G2 F2 E2 C2 | D4) E2 F^G | %113
 F2 E2 z4 | z (dcB A^GFE) | (A^GFE DCB,A,) |!p! !^!D4 !^!D4 | (!^![A,C]D[E,B,]C A,) z .[E,C] z | %118
 !^!D4 !^!D3 z | (!^![A,C]DEF ^G) z ([CE]2 | .[DF]2) .D2 (A^GFE | .[A,A]2) E2 ([FA]^GF^E | %122
!p!"_cresc." F4)[K:bass] ([A,=C]4 | [DE]4 D4 |!mf! [E,^G,DE]4) (F,G,A,B, | %125
 .[A,C]) z (E,F, ^G,A,B,C | .[DE]) z (E,4 F,^G, | A,B,CD EF^GA | %128
!mf! .A,) z z2 .[A,,A,]2 .[^A,,^A,]2 | .[B,,B,]2 .[C,C]2 .[D,D]2 .C.D | %130
!mf! [E,B,D]4- [E,B,D] z [CE]2- | [CE] z [CG]4- [CG] z | [DF]4 [^DFA]4 | [EA]4!<(! ([G,DE]4!<)! | %134
!f! .[A,CE]) z z2[K:bass]!ff! .A,2 .E,2 | .A,2 .B,2 .C2 .D2 | !^!E4[K:treble] (F2 ^GA | %137
 ^G2 F2 E2 d2 | c4) (A,2 ^G,F, | ^G,2 A,2 B,2 C2 | !^!D4) x4 | DECD B,CE,C | %142
 [A,CE]2 z2!f! ([A,C]2 [B,D]2 | [CE]2 [DF]2 [E^G]2 [FA]2 | [DE^G]4)!ff! (E2 [CF]2 | %145
 ^G2 A2 G2 [df]2 | [ce]3) z E4 | .E.F.E.F .^G.A.G.A | [DE]4 z4 | z8 | z4 ([CE]4 | %151
 [DE]3) z[K:bass] ([E,D]4 | [E,CE]3) z ([A,CE]B,CF | [DE]3) z ([E,D]F,^G,C | %154
 [A,C]2) z2!mf! [E,-B,D]4 | [E,-A,C]4 [E,-B,D]4 | [E,A,C]4!p! [E,B,]4 |!>(! [C,A,]4 [B,,E,]4!>)! | %158
!pp! A,8 | z8 |1 z4!pp! .A,2 .A,,2 | .A,2 .A,,2 .D,2 .A,,2 :|2 z4!pp! .A,2 .A,,2 || %163
 .A,2 .A,,2 z4 ||[M:4/4] z8 | z8 | z8 |[K:treble]!pp! ([DA]4 .[CA]2) z2 | z8 | z4 ([DA]4 | %170
 .[CA]2) z2 z4 | z8 | z8 | ([A,-D]8 | [A,E]8) |!ppp! z8 | z4 z2!pp! (!tenuto!E2 | %177
 =F4 .A,2) (!tenuto!F2 | E4 .A,2) z2 |!ppp! [A,,A,]8- | [A,,A,]8- | [A,,A,]8 | [A,,A,]8- | %183
 [A,,A,]8- | [A,,A,]8 | (!^!E4 A,2) z2 | [A,,A,]4- [A,,A,] z (!tenuto!D2 | %187
 E4!pp! .A,2) (!tenuto!E2 | =F4 .A,2) (!tenuto!F2 | E4 .A,2)!p! [A,,,A,,]2 | %190
 [B,,,B,,]2 [=C,,=C,]2 [^C,,^C,]2 (3([D,,D,][=C,,=C,][B,,,B,,]) | %191
 [=C,,=C,]2 [D,,D,]2 [_E,,_E,]2 (3([=E,,=E,][D,,D,][C,,C,]) | [D,,D,]2 [E,,E,]2 [=F,,=F,]3 z | %193
 [E,,E,]2 [=F,,=F,]2 !tenuto![G,,G,]2[K:treble] ([CE]2 | [D=F]2 [=CE]2 [_B,D]2 [A,C][B,D] | %195
 [CE]4 .[A,=C]2) z2 |[K:bass] [B,,,B,,]2 [=C,,=C,]2 [D,,D,]2 [C,,C,][B,,,B,,] | %197
 [=C,,=C,]2 [D,,D,]2 [E,,E,]2[K:treble]!pp! ([CE]2 | [D=F]2 [=CE]2 [_B,D]2 [A,C][B,D] | %199
 [CE]4 .[A,=C]2) E2 | (A4 .=F2) z2 | (A4 .E2) !tenuto!E2 | ([_B,=F-]4 .[A,F]) z z2 | %203
 ([_B,=F-]4 .[A,F]) z z2 |!ppp! [_B,=F]8- | [B,F]8 | [=F,_B,D]8- | [F,B,D]4 [_E,G,C]4 || %208
[M:2/2] [D,F,A,D]8- | [D,F,A,D] z z2 z2!p! .[D,F,A,]2 | ([F,A,D]4 .[D,F,A,]2) .[D,F,A,]2 | %211
 [F,A,D]4 z2 .[D,F,A,]2 | [F,A,D]3 .[D,F,A,] .[F,A,D]2 .[A,DF]2 | [F,A,D]4 z2 .[D,F,A,]2 | %214
 [F,A,D]3 .[D,F,A,] .[F,A,D]2 .[A,DF]2 | [FA]3 .[DF] .[A,D]2 .[F,A,]2 | %216
 [A,D]3 .[DF] .[FA]2 .[FAd]2 | [DFA]4 z2 .[FAd]2 | !tenuto![DFA]4 .[DFA]2 .[FAd]2 | [DA]4 z2 .d2 | %220
 A4 z2 .d2 | A4 z2 !tenuto!D2 | (E4 .A,2) !tenuto!E2 | (F4 .A,2) (!tenuto!F2 | G2 F2 G2 E2 | %225
 D4 A,2) !tenuto!D2 | ([CG]2 .A,2) ([B,G]2 .[A,C]2) | (G3 F EDCB, | E4 .A,2) !tenuto!D2 | %229
 (C4 .E,2) (B,2 | A,4) (D4 | [CE]4 [DF]2 F2 | A3) z ([A,C]2 [B,D]2 | [CE]4) ([A,C]2 [B,D]2 | %234
 [CE]4) ([A,C]2 [B,D]2 | E2 F2 ^G2 A2 | ^G4) (E2 [CF]2 | [D^G]2 A2 G2 f2 | (e4) F2 ^GA | %239
 ^G2 F2 E2 d2 | c4) ([A,C]2 [B,D]2 | [CE]4) ([A,C]2 [B,D]2 | [CE]4) ([A,C]2 [B,D]2 | E2 F2 ^G2 A2 | %244
 ^G8-) | G8 | z4 ._D2 ._A,2 | ._D2 ._E2 .=F2 ._G2 | _A4 ([_D=F]2 [_E_G]2 | %249
 [=F_A]4) ([_DF]2 [_E_G]2 | [=F_A]4) ([_DF]2 [_E_G]2 | [=F_A]2 [_E_G][_DF] [EG]2 [FA]2 | %252
 [_G_B]4)!pp! (_B,=C_DB, | =F4) (_B,=C_DB, | ._G2) .G2 (_B,=C_DB, | =F4) z4 | z4 (=F^FC=F | %257
 _B,CF,B, =F,) z!mp! .=F2 | (_B4 ._E2) .B2 | (!^!=c4 ._E2) (c2 | _B2 =c2 _d2 B2 | _A4 _E2) (A2 | %262
 _B=c_dB G4) | (_A_B=cA F4) | [_D_EG]_A_BG =FGAF |!<(! ([_D_E]=DE=F G_A_B=c)!<)! | %266
!f!!>(! ([_EG_d]2 G2 (3=FGF!>)!!<(! E2)!<)! |!ff! ([_E_A_e]3!>(! d _d=c_BA) | %268
 (A_B=cB!>)!!<(! _AG=F_E)!<)! |!mp! ([_E_A]3!>(! G =FE_D=C)!>)! | %270
!p! [_A,=F_A]4- [A,FA] z !tenuto![=A,F]2 | .[_B,=F] z .[=CE]F [_DF]2 .[C_G].[DF] | %272
 [_B,_DG]4- .[B,DG] z [=C_E_A]2- | .[CEA] z [=CF=A]4- [CFA] z | [C=F_B]3 z [B,F]4- | %275
!mf!!<(! [B,F]2 z A, B,=CDE | (=F8!<)! |!p! .[=CE]) z (G,A, _B,CDE | =F) z (G,4 A,B, | =C8-) | %280
 C4 z!pp! (ED=C) | z (=CDC[K:bass] B,A,G,=F,) | z (B,A,G, =F,E,F,D,) | =C, z z2 z4 | z4 =C4- | C8 | %286
 (=C4 D2 E=F | E2 D2 =C2 A,2 | =C8-) |!pp! TC8 | T=C6 z (D | %291
 =C_B,CA,) z2[K:treble]!mf! (!tenuto!=F2 | G4 =C2) (!tenuto!G2 | A4 =C2) (A2 | %294
 [=C_B]2 A2 [CB]2 G2 | [=F=c]4 =C2) z2 |!pp! T=C8 | [_B,=C]8 | [_B,=C]4 B,4 | %299
 A,4 z2[K:bass]!mf! (!tenuto!=F,2 | G,4 =C,2) (!tenuto!G,2 | A,4 =C,2)!p!!<(! ([A,=C]2 | %302
 [G,_D]2 =C2 _D2 _B,2 | =C4 ._E,2) ([C_E]2 | [B,=F]2 E2 F2 D2 | [EG]4 =C2)!<)! z2 | %306
!pp! (!^!=F,E,F,E, .F,2) z2 | (!^!=F,E,F,E, .F,2) .F,2 | .G,2 ._A,2 ._B,2 .A,.G, | %309
 ._A,2 ._B,2 .=C2 .[=F,B,].A, | .G,2 ._A,2 ._B,2 .A,.G, | ._A,2 ._B,2 .=C2 .B,.A, | %312
!<(! .G,2 .=F,2 ._E,2 .C,.=C,!<)! | _B,4 z2 .B,2 |!<(! ._A,2 .G,2 .=F,2 ._E,._D,!<)! | =C4 z4 | %316
!<(! ._D2 .=C2 !tenuto!_B,2 .C.D!<)! |!f!!>(! =C4!>)! z4 |!p! =F,8- |!<(! F,8!<)! | %320
!mf!!mf! [=F,,=F,]8- | [F,,F,]8- | [F,,F,]6!p! ([_A,_D]2 | [A,=C]8 | [_A,_D]4) [=F,,=F,]4- | %325
 [F,,F,]8- | [F,,F,]4 z2 ([_A,_D]2 | [A,=C]8 |!p! [_A,_D]8) |!<(! =F4- F/ z/ z x2!<)! | %330
 !^!=F,6 z2 |!<(! =F4- F/ z/ z x2!<)! | !^![_E,=F,]6 z2 | !^![_E,=F,]6 z2 | !^![_E,=F,]6 z2 | %335
!<(! (_E,4 _D,2 =C,2!<)! | _E,8) |!<(! (_E,4 _D,2 =C,2!<)! | _E,8) |!pp! (_E,4 _D,2 =C,2) | %340
"_cresc." (_E,4 _D,2 =C,2) | (_E,4 _D,2 =C,2) | (_E,4 _D,2 =C,2) | (_E,4 _D,2 =C,2) | %344
 (_E,4 _D,2 =C,2) |!mf!"_cresc." _E,2 _D,=C, E,2 D,C, | _E,2 _D,=C, E,2 D,C, | %347
 _E,2 _D,=C, E,2 D,C, | _E,2 _D,=C, E,2 D,C, |!ff! _E,_D,=C,E, D,C,E,D, | =C,_E,_D,C, E,D,C,E, | %351
 _D,=C,_E,D, C,E,D,C, | _E,_D,=C,E, D,C, E, z |!ff! [G,A,-E-]2!>(! !///-![A,E]3 G,3!>)! | %354
 z3/2 .A,/4.A,/4 (3.A,.E,.A, (3:2:2E2 .A, (3:2:2E2 .A, | %355
!<(! (3.[G,E].A,.E (3:2:2A2 .A, (3.[G,E].A,.E (3:2:2A2 .A,!<)! | %356
 (3.[G,E].A,.E (3.A.E.A (3.A.E.A (3.A.E.A | %357
!fff! (3.[G,A,EA] z .[A,A] (3.[A,A].[A,A].[A,A] (3.[A,A] z .[A,A] (3.[A,A].[A,A].[A,A] | %358
!<(! [G,A,E]4-!<)! [G,A,E] z[K:bass] .A, z | ([F,A,D]4 .[D,F,A,]) z!ff! .[D,F,A,] z | %360
 [F,A,D]4 z2 .[D,F,A,] z | [F,A,D]3 .[D,F,A,] .[F,A,D] z .[A,DF] z | %362
 [F,A,D]4 z2[K:treble] (3.A,.D.F | .[FA] z (3.A,.D.F .[FA] z (3.A,.D.F | %364
 .[FA] z z2!f! (AB[F-A][FB]) | (!^![A,GA]2 A,2 B,2 C2 | !^![A,DF]2 E2 .F2) (A2 | %367
 [B,GB]2 A2 [CB]2 G2 | [DF]2 A,2 D2) F2 | !^!A4 !^!A4 | !^!A6 [FA-]2 |!>(! [EA-]4 ([A,-FA]4 | %372
 E4 D4!>)! |!p! C2) z2 ([A,C]2 [B,D]2 | [CE]4) ([A,C]2 [B,D]2 | [CE]4) ([A,C]2 [B,D]2 | %376
 E2 F2 ^G2 A2 | [DE^G]4) (E2 F2 |!<(! ^G2 A2 B2 c2!<)! |"_cresc." B4) !^![^G,D]4 | %380
 !^![A,D]4 !^![B,DE]4 |!<(! !^![CEG]8 | !^![DG]4 !^![_EA]4 | !^![EG]4 !^!F4 | %384
 (!^![EG]4 .A,2)!<)! z2 |!ff! z8 | A,8 | !^!A,4 (B,2 CD) | (C2 !tenuto!B,2) (A,2 !tenuto!F,2) | %389
 !^!G,4 (!^!A,2 B,C) | (B,2 !tenuto!A,2) (G,2 !tenuto!E,2) | !^!F,2 !^!G,2 TA,4 | TA,8 | %393
 z2 .A,2 .B,2 .C2 | .[DF]2 .E2 .F2 .A,2 | .B,2 .A,2 .B,2 .C2 | .[DF]2 .E2 .F2 .D2 | %397
!p!!<(! !^!C8!<)! |!f! !^!_E8 |!ff! [_B,D]8 | [A,DF]4 z2[K:treble] .[A,F]2 | !^![A,G]4 !^![A,G]4 | %402
 (!^![A,F]GAB A2) [A,F]2 | !^![A,CG]4 !^![A,CG]4 | ([DF]GAB c2) ([Fd]c | [A,GB]4) ([GB]2 [Gc]B | %406
 [A,FA]4) (A2 BA | !^![A,CG]4) !^![A,CG]4 | [A,E]4 [B,D]4 | A, z (A,4 B,C | [DF]) z (A,B, CDEF | %411
 .G) z (A,4 B,C | [DF]EFG A) z (D2 | .[Bd]2) .[^Ac].[Bd] .[GB]2 .[FA].[GB] | %414
 .[B,G]2 .[^A,F].[B,G] .[EG]2 .[^G,D^E]2 |!<(! [A,DF]8 | [A,CG]8 | %417
 .[A,DF]2!<)! z2!ff! .!^!D2 .!^!A,2 | .!^!D2 .!^!E2 .!^!F2 .!^!G2 | !^!A4 (B2 cd | c2 B2 A2 g2 | %421
 f2) z2 (!^!D2 CB, | C2 D2 E2 F2 | G8-) | (GAFG EFA,F | D2) z2[K:bass]!f! ([D,F,]2 [E,G,]2 | %426
 [F,A,]2 [G,B,]2 [A,C]2 [B,D]2 | [G,A,C]4) (A,2 B,2 | C2 D2 C2 B2 | A4) F,G,F,G, | A,B,A,B, CDCD | %431
!<(! !tenuto!E2 !tenuto!D2 !tenuto!C2 !tenuto!B,2 | %432
 !tenuto!A,2 !tenuto!G,2 !tenuto!F,2 !tenuto!E,2!<)! |!ff! .D,2 z2[K:treble] [FA-]4 | %434
 [GA]2 z2 [A,-G]4 | [A,F]2 z2[K:bass] [F,A,-]4 | [G,A,]2 z2 (!^![A,B,]B,CF | %437
 .[F,A,D]2) z2!f! ([G,B,E]4 | [F,A,D]4) ([A,E]4 |!>(! [A,D]4)!>)!!ff! .D2 .A,2 | .D2 .A,2 z4 | z8 | %442
 z8 | z8 | z8 | z4[K:treble]!ff! .[A,DEGA].[A,DEGA].[A,DEGA].[A,DEGA] | z8 | %447
 z2 .[A,DEGA].[A,DEGA] .[A,DEGA].[A,DEGA].[A,DEGA].[A,DEGA] | .[A,DEGA].[A,DEGA] .[A,DEGA]2 z4 | %449
 z8 | z4 .[A,DEGA].[A,DEGA].[A,DEGA].[A,DEGA] | %451
 .[A,DEGA].[A,DEGA].[A,DEGA].[A,DEGA] .[A,DEGA] z .!^![A,CG] z | .!^![A,DF]2 z2 z4 |] %453
V:6
 [A,,,A,,]8- | [A,,,A,,]8- | [A,,,A,,]8 | [A,,,A,,]8- | [A,,,A,,]8- | [A,,,A,,]8 | [A,,,A,,]8- | %7
 [A,,,A,,]8- | [A,,,A,,]4 [A,,,B,,]4- | [A,,,B,,]8- | [A,,,B,,]8 | A,,,8- | A,,,8- | A,,,8 | %14
 [A,,,A,,]8- | [A,,,A,,]8 | [A,,,A,,]8- | [A,,,A,,]8- | [A,,,A,,]8- | [A,,,A,,]8 | A,,,8- | %21
 [A,,,A,,]8- | [A,,,A,,]8- | [A,,,A,,]8- | [A,,,A,,]4 [A,,,A,,]4- | [A,,,A,,]8 | [A,,,A,,]8- | %27
 [A,,,A,,]8- | [A,,,A,,]8- | [A,,,A,,]8- | [A,,,A,,]8 | [A,,,A,,]8- | [A,,,A,,]8- | [A,,,A,,]8- | %34
 [A,,,A,,]8 | A,,,8- | [A,,,A,,]8 | A,,,8- | A,,,8 | [A,,,A,,]8- | [A,,,A,,]8- | [A,,,A,,]8- | %42
 [A,,,A,,]8 | [A,,,A,,]8- | [A,,,A,,]8- | [A,,,A,,]8 | !///-!A,,,3 A,,3 (3(C,,=B,,,A,,, | %47
 B,,,2 =B,,,2 C,,2 (3^C,,B,,,A,,, | =B,,,2 C,,2 ^C,,2 (3D,,C,,B,,, | C,,2 D,,2 _E,,2 (3=E,,D,,C,, | %50
 D,,2 E,,2 F,,2 (3G,,F,,E,, | F,,2) z2 z4 | z8 | z8 | z8 | z8 | z8 | z8 ||[K:D][M:2/2] z8 | z8 | %60
 z8 | z8 |: z4!pp! .D,2 .A,,2 | !arpeggio![A,,D,]4 (A,,4- | B,,4 C,2 D,2 | C,4 B,,2 A,,2 | %66
 B,,4 C,4 | D,4) (E,2 C,2 | F,4) (G,2 E,2 | A,2 G,2 F,2 D,2 | A,4) z4 | [A,,E,]8- | [A,,E,]8- | %73
 [A,,E,]2 z2 z4 | z8 | !arpeggio![A,,E,]2 z2 !wedge!E,2 z2 | z4 !wedge!E,2 z2 | %77
 z2 !wedge!E,2 z2 !wedge!E,2 | z2 !wedge!E,2 !wedge!E2 !wedge!E,2 | %79
 !wedge![A,,E,]2 z2!p! .A,2 .E,2 | .A,2 .B,2 .C2 .D2 |!ppp! .A,,2 .E,2 z2 .E,2 | z4 z2 .E,2 | %83
 .[A,,E,]2 z2 z4 | z8 | .E,2 .E,2 .F,2 .^G,2 | .A,2 .E,2 .A,2 .F,2 | !tenuto![A,,E,]2 z2 z4 | %88
 .A,,2 .E,2 .A,2 .F,2 | E,8- | E,8 | .E,,2 .B,,2 .E,2 .B,,2 | .E,,2 .B,,2 .E,2 .B,,2 | %93
 .E,,2 .B,,2 .E,2 .B,,2 | .E,,2 .B,,2 .E,2 .B,,2 | .E,,2 .B,,2 .E,2 .B,,2 | %96
 .E,,2 .B,,2 .E,2 .B,,2 | .E,,2 .B,,2 .E,2 .B,,2 | .E,,2 .B,,2 .E,2 .B,,2 | %99
 .E,,2 .B,,2 .E,2 .B,,2 | .E,,2 .B,,2 .E,2 .B,,2 | .E,,2 .B,,2 .E,2 .B,,2 | %102
 .E,,2 .B,,2 .E,2 .B,,2 | .E,,2 .B,,2 .E,2 .B,,2 | .E,,2 .B,,2 .E,2 .B,,2 | %105
 .E,,2 .B,,2 [A,,E,B,]2 z2 | z4 .[DE]2 .E,2 | .[DE]2 .E,2 [E,DE]4- | [E,DE]4 .A,2 .E,2 | %109
 .[A,,E,A,]2 .B,2 .C2 .D2 | E8 | [E,E]4 E,4- | E,8 | [E,E]4 D2 B,2 | C2 D2 .E2 .E,2 | %115
 z2 .E,2 z2 .E,2 | .[E,,E,] z z2{/!^!^D,} E,4 | .[E,,E,] z z2{/!^!^D,} E,4 | %118
 .[E,,E,] z z2{/!^!^D,} E,4 | .[E,,E,] z z2{/!^!^D,} E,4 | .E,, z z2 z4 | .[E,,E,] z z2 z4 | %122
 !///-!E,,,4 E,,4 | !///-!E,,,4 E,,4 | .E,,,2 z2 z4 | [E,,E,]2 z2 z4 | z8 | %127
 z4!p!!<(! !///-!A,,,2 A,,2!<)! | A,,4 z4 | D,,4 z4 | E,, z z2 z2 !^!E,2- | E, z !^!E,4- E, z | %132
 !^!E,4 !^!E,4- | E,4 !///-!E,,,2 E,,2 | !^!A,,, z z2{/F,} [A,,E,]4- | [A,,E,]2 z2{/F,} [A,,E,]4- | %136
 [A,,E,]2 z2 !^![A,,E,]4- | [A,,E,]8- | [A,,E,]2 z2 [A,,E,]4- | [A,,E,]8- | [A,,E,]8- | [A,,E,]8- | %142
 [A,,E,]2 z2 !^![A,,E,]4- | [A,,E,]2 z2 !^![A,,E,]4- | [A,,E,]2 z2 !^![A,,E,]4- | [A,,-E,]8 | %146
 [A,,E,]2 z2 [A,,E,]4- | [A,,E,]8 | [A,,E,]8- | [A,,E,]8- | [A,,E,]2 z2 !^![A,,E,]4- | %151
 [A,,E,]3 z !^!A,,4- | A,,3 z !^![A,,E,]4- | [A,,E,]3 z !^![A,,E,]4 | [A,,E,]4 !///-!A,,,2 A,,2 | %155
 !///-!A,,,2 A,,2 !///-!A,,,2 A,,2 | !///-!A,,,2 A,,2 !///-!A,,,2 A,,2 | %157
 !///-!A,,,2 A,,2 !///-!A,,,2 A,,2 | .A,,,2 z2 z4 | z8 |1 z8 | z8 :|2 z8 || z8 ||[M:4/4] z8 | z8 | %166
 z8 | z8 | (E4 .A,2) z2 | z8 | z4 z2 (!tenuto!E2 | =F4 .A,2) (!tenuto!F2 | E4 .A,2) z2 | z8 | z8 | %175
 [A,,A,]8- | [A,,A,]8 | z8 | z8 | z8 | z8 | =F,,,8- | F,,,8- | F,,,8- | F,,,8 | =F,,,8- | F,,,8 | %187
 [=F,,,A,,]8- | [F,,,A,,]8- | [F,,,A,,]6 [=F,,,A,,,]2- | [F,,,A,,,]8- | [F,,,A,,,]8- | %192
 [F,,,A,,,]8- | [F,,,A,,,]8 | =F,,,8- | F,,,8 | [=F,,,A,,,]8- | [F,,,A,,,]8 | =F,,,8 | =F,,,8- | %200
 F,,,8- | F,,,8 | =F,,,8 | =F,,,8 | !///-!=F,,,2 =F,,2 !///-!F,,,2 F,,2 | %205
 !///-!=F,,,2 =F,,2 !///-!F,,,2 F,,2 | !///-!=F,,,2 =F,,2 !///-!F,,,2 F,,2 | %207
 !///-!=F,,,2 =F,,2 !///-!_E,,,2 _E,,2 ||[M:2/2] D,,8- | D,, z z2 z4 | z8 | .[D,,D,]2 z2 z4 | z8 | %213
 .[D,,D,]2 z2 z4 | z8 | D3 .A, .F,2 .D,2 | F,3 A, .D2 z2 | .[D,,D,]2 z2 z4 | .[D,,D,]2 z2 z4 | %219
 [D,,A,,]8- | [D,,A,,]8- | [D,,A,,]8 | [D,,A,,]8- | [D,,A,,]8- | [D,,A,,]8- | [D,,A,,]8 | %226
 [D,,A,,]8- | [D,,A,,]8 | ([C,,C,]4 [D,,D,]4 | [E,,E,]8) | (.A,,2 .E,2 .A,2 .E,2) | %231
 (.A,,2 .E,2 .A,2 .E,2) | (.A,,2 .E,2 .A,2 .E,2) | (.A,,2 .E,2 .A,2 .E,2) | %234
 (.A,,2 .E,2 .A,2 .E,2) | (.A,,2 .E,2 .A,2 .E,2) | (.A,,2 .E,2 .D2 .E,2) | B,6 z2 | %238
 (.[E,^G,D]2 .E,2 .G,2 .[E,F,]2) | [A,,E,]2 E,4 [E,^G,]2 | (.[A,,A,]2 .E,2 .A,2 .E,2) | %241
 (.A,,2 .E,2 .A,2 .E,2) | (.A,,2 .E,2 .A,2 .E,2) | (.A,,2 .E,2 .A,2 .E,2) | %244
 (._D,2 ._A,2 ._D2 .A,2) | (._D,2 ._A,2 ._D2 .A,2) | ._D,2 ._A,2 z4 | ._D,2 ._A,2 ._D2 .A,2 | %248
 .[_D,_A,]2 .A,2 ._D2 .A,2 | ._D,2 ._A,2 ._D2 .A,2 | ._D,2 ._A,2 ._D2 .A,2 | %251
 ._D,2 ._A,2 ._D2 .A,2 | .[_D,,_D,]2 z2 z4 | .[_D,,_D,]2 z2 z4 | .[_D,,_D,]2 z2 z4 | %255
 .[_D,,_D,]2 z2 z4 | z8 | z4 z2 .[_E,,_E,]2 | .[=F,,=F,]2 .[_E,,_E,]2 .[F,,F,]2 .[G,,G,]2 | %259
 .[_A,,_A,]2 .[=C,=C]2 .[A,,A,]2 .[_E,,_E,]2 | .[E,,E,]2 .[=F,,=F,]2 .[^F,,^F,]2 .[G,,G,]2 | %261
 .[_A,,_A,]2 .[_E,,_E,]2 (E,2 _D,C, | ._D,2) ._E,,2 (=D,2 C,B,, | .=C,2) ._E,,2 (C,2 _B,,A,, | %264
 ._B,,2) .[_E,,_E,]2 .[_A,,_A,]2 .[E,,E,]2 | .[=F,,=F,]2 .[_E,,_E,]2 .[G,,G,]2 .[E,,E,]2 | %266
 ._B,,2 ._E,,2 ._E,2 .E,,2 | ._A,,2 ._E,,2 _E,2 _D,C, | ._D,2 ._E,,2 ._B,,2 .E,,2 | %269
 ._A,,2 ._E,,.=F,, .G,,.A,,._B,,.=C, | C,8- | C,8 | _E,4 E,4- | E, z _E,4- E, z | _E,3 z [D,G,]4- | %275
 [D,G,]4 z4 | .G,,,2 z2 z4 | z4 (G,4 | G,,2) G,6 | (=C,D,E,=F, G,A,B,=C) | [=F,,=C,]8- | [F,,C,]8 | %282
 .=F,,2 .=C,2 .=F,2 .C,2 | .=F,,2 .=C,2 .=F,2 .C,2 | .=F,,2 .=C,2 z2 z2 | .=F,,2 .=C,2 .=F,2 .C,2 | %286
 .=F,,2 .=C,2 .=F,2 .C,2 | .=F,,2 .=C,2 .=F,2 .C,2 | .=F,,2 .=C,2 .=F,2 .C,2 | %289
 .=F,,2 .=C,2 .=F,2 .C,2 | .=F,,2 .=C,2 .=F,2 .C,2 | .=F,,2 .=C,2 .=F,2 .C,2 | %292
 .=F,,2 .=C,2 .[=F,_B,]2 z2 | .=F,,2 .=C,2 .[=F,A,]2 z2 | .=F,,2 .=C,2 .[=F,_B,]2 z2 | %295
 .[=F,,=F,]2 .=C,2 .F,2 z2 | .=F,,2 .=C,2 .=F,2 z2 | .=F,,2 .=C,2 .=F,2 z2 | %298
 .=F,,2 .=C,2 .=F,2 z2 | .=F,,2 .=C,2 .=F,2 z2 | .=F,,2 .=C,2 .=F,2 z2 | .=F,,2 .=C,2 .=F,2 z2 | %302
 ._E,,2 ._E,2 .G,2 z2 | ._A,,2 ._E,2 ._A,2 z2 | .G,,2 .G,2 .B,2 z2 | .=C,2 .G,2 .=C2 z2 | z8 | %307
 z4 z2 .[=C,,=C,]2 | ([_D,,_D,]4 .[=F,,,=F,,]2) .[D,,D,]2 | ([=C,,=C,]4 .[=F,,,=F,,]2) z2 | =F,8- | %311
 F,8- | F,2 z2 z4 | [=F,,_B,,]4 z4 | z8 | [=F,,=C,]4 z4 | z4 z2 ._B,,2 | %317
 ._A,,2 ._B,,2 !tenuto!=C,2 .B,,.A,, | ._B,,2 .=C,2 !tenuto!_D,2 .C,.B,, | %319
 .=C,2 ._D,2 !tenuto!_E,2 .D,.C, | !///-!_D,,2 =F,,2 !///-!D,,2 F,,2 | %321
 !///-!_D,,2 =F,,2 !///-!D,,2 F,,2 | !///-!_D,,2 =F,,2 !///-!D,,2 F,,2 | z8 | %324
 !///-!_D,,2 =F,,2 !///-!D,,2 F,,2 | !///-!_D,,2 =F,,2 !///-!D,,2 F,,2 | %326
 !///-!_D,,2 =F,,2 !///-!D,,2 F,,2 | z8 | [=F,,,_D,,]6 z2 | !^![_D,_D]4 !^![=C,=C]4 | !^!=F,,6 z2 | %331
 !^![_D,_D]4 !^![=C,=C]4 | !^!_E,,6 z2 | !^!_E,,6 z2 | _E,,8 | (_E,,4 _D,,2 =C,,2 | _E,,8) | %337
 (_E,,4 _D,,2 =C,,2 | _E,,8) | (_E,,4 _D,,2 =C,,2) | (_E,,4 _D,,2 =C,,2) | (_E,,4 _D,,2 =C,,2) | %342
 (_E,,4 _D,,2 =C,,2) | (_E,,4 _D,,2 =C,,2) | (_E,,4 _D,,2 =C,,2) | _E,,2 _D,,=C,, E,,2 _D,,C,, | %346
 _E,,2 _D,,=C,, E,,2 _D,,C,, | _E,,2 _D,,=C,, E,,2 _D,,C,, | _E,,2 _D,,=C,, E,,2 _D,,C,, | %349
 _E,,_D,,=C,,E,, D,,C,,E,,D,, | =C,,_E,,_D,,C,, E,,D,,C,,E,, | _D,,=C,,_E,,D,, C,,E,,D,,C,, | %352
 _E,,_D,,=C,,E,, D,,C,, E,, z | [A,,,-A,,]2 !///-!A,,,3 A,,3 | !///-!A,,,2 A,,2 !///-!A,,,2 A,,2 | %355
 !///-!A,,,2 A,,2 !///-!A,,,2 A,,2 | !///-!A,,,2 A,,2 !///-!A,,,2 A,,2 | %357
 !///-!A,,,2 A,,2 !///-!A,,,2 A,,2 | !///-!A,,,2 A,,2 A,,, z .[A,,,A,,] z | [D,,A,,]8- | %360
 [D,,A,,]4 z4 | [D,,A,,]8- | [D,,A,,]4 z2 .[D,F,] z | .D z .[D,F,] z .D z .[D,F,] z | .D z z2 z4 | %365
 !^![D,,A,,]4 z4 | !^![D,,A,,]4 z4 | [D,,A,,]8- | [D,,A,,]4 z4 | (G4 .A,2) (!tenuto!G2 | %370
 F4 A,2) z2 | ([C,,C,]4 [D,,D,]4 | [E,,E,]4 [F,,F,]4) | A,4 E,4 | A,4 E,4 | A,4 E,4- | E,8 | %377
 z4 z2 (C2 | B,6 A,2 | ^G,4 [^E,,^E,]4) | !^![F,,F,]4 !^![^G,,^G,]4 | !^![A,,A,]4 !^![^A,,^A,]4 | %382
 !^![B,,B,]4 !^![^B,,^B,]4 | !^![C,C]4 !^![^D,^D]4 | (!^!E,4 .A,,2) z2 | z4 .[D,,D,]2 .[A,,,A,,]2 | %386
 .[D,,D,]2 .[E,,E,]2 .[F,,F,]2 .[G,,G,]2 | !^!A,,4 (!^!B,,2 C,D, | C,2 B,,2) (A,,2 F,,2) | %389
 !^!G,,4 (A,,2 B,,C,) | (B,,2 !tenuto!A,,2) (G,,2 !tenuto!E,,2) | !^!F,,2 !^!G,,2 A,,4- | %392
 A,,2 z2 z4 | .[A,,,A,,]2 z2 z4 | .[A,,,A,,]2 z2 z4 | z8 | .[D,,D,]2 z2 z4 | %397
 .[=C,,=C,]2 .C,2 .D,2 .E,2 | [=F,,=F,]2 G,2 A,2 F,2 | z4 .[_B,,,_B,,]2 z2 | %400
 z4 .[A,,,A,,]2 .[A,,,A,,] z | .[B,,,B,,]2 .[A,,,A,,]2 .[B,,,B,,]2 .[C,,C,]2 | %402
 .[D,,D,]2 .[A,,,A,,]2 .[D,,D,]2 .[^D,,^D,]2 | .[E,,E,]2 .[^D,,^D,]2 .[E,,E,]2 .[B,,B,]2 | %404
 .[A,,A,]2 .[G,,G,]2 .[F,,F,]2 .[A,,A,]2 | .[A,,A,]2 .[^D,,^D,]2 .[E,,E,]2 .[^E,,^E,]2 | %406
 .[F,,F,]2 .[C,,C,]2 .[D,,D,]2 .[^D,,^D,]2 | .[E,,E,]2 .[A,,,A,,]2 .[B,,,B,,]2 .[A,,,A,,]2 | %408
 .[C,,C,]2 .[A,,,A,,]2 .[D,,D,]2 .[A,,,A,,]2 | .[E,,E,]2 .[A,,,A,,]2 z4 | %410
 .[F,,F,]2 .[A,,,A,,]2 z4 | .[G,,G,]2 .[A,,,A,,]2 .[E,,E,]2 .[A,,,A,,]2 | %412
 .[D,,D,]2 .[A,,,A,,]2 .[F,,F,]2 .[D,,D,]2 | D,6 ^D, z | E, z F, z .!^![G,,G,]2 .!^!^G,,2 | A,,8 | %416
 ([A,,,A,,]8 | .[D,,D,]2) z2 [D,,A,,]4- | [D,,A,,]2 z2 [D,,A,,]4- | [D,,A,,]2 z2 [D,,A,,]4- | %420
 [D,,A,,]8- | [D,,A,,]2 z2 [D,,A,,]4- | [D,,A,,]8- | [D,,A,,]8- | [D,,A,,]8- | %425
 [D,,A,,]2 z2 [D,,A,,]4- | [D,,A,,]2 z2 [D,,A,,]4- | [D,,A,,]2 z2 [D,,A,,]4- | [D,,A,,]8- | %429
 [D,,A,,]2 z2 [D,,A,,]4- | [D,,A,,]8 | [D,,A,,]8- | [D,,A,,]8- | [D,,A,,]2 z2 [D,A,]4- | %434
 [D,A,]2 z2 D,4- | D,2 z2 [D,,A,,]4- | [D,,A,,]2 z2 [D,,A,,]4- | [D,,A,,]2 z2 D,4- | %438
 D,4 ([D,-G,]4 | [D,F,]4) ([D,E,G,]4 | [D,F,]4)!fff! .D,,2 .A,,,2 | .D,,2 .A,,,2 .D,,2 .A,,,2 | %442
 z8 | z8 | z8 | z8 | .!^!D,,2 .!^!A,,,2 z4 | z8 | .!^!D,,2 .!^!A,,,2 .!^!D,,2 .!^!A,,,2 | z8 | %450
 z4 .D,,2 .A,,,2 | .D,,2 .A,,,2 .!^!D,, z .!^![A,,,A,,] z | .!^![D,,D,]2 z2 z4 |] %453
V:7
 x8 | x8 | x8 | x8 | A,,4 E,,4 | x8 | x8 | x8 | x8 | z4 z2 (3:2:4z z .F,/.F,/ | %10
 (3.B,.F,.B,, (3:2:2(!^!F,2 .B,,) (3.B,.F,.B,, (3:2:2.F,2 .B,, | B,,8- | B,,4 =B,,4- | B,,8 | x8 | %15
 x8 | x8 | x8 | x8 | x8 | x8 | x8 | x8 | x8 | x8 | z2 .A,!p!!tenuto!E, .A,,!p!!tenuto!E,,- E,,2 | %26
 x8 | x8 | x8 | x8 | x8 | x8 | x8 | x8 | x8 | x8 | x8 | x8 | x8 | x8 | x8 | x8 | x8 | x8 | x8 | %45
 x8 | x8 | x8 | x8 | x8 | x8 | A,,,4 !///-!A,,,2 A,,2 | x8 | x8 | x8 | x8 | x8 | x8 || %58
[K:D][M:2/2] x8 | x8 | x8 | x8 |: x8 | D,,8- | [D,,A,,]8 | [D,,A,,]8- | [D,,A,,]8 | [D,,A,,]8 | %68
 x8 | D,6 z2 | [A,,E,]8- | x8 | x8 | x8 | x8 | x8 | x8 | x8 | x8 | x8 | x8 | x8 | x8 | x8 | x8 | %85
 x8 | x8 | x8 | x8 | (^G,,4 A,,4 | B,,4 C,4) | x8 | x8 | x8 | x8 | x8 | x8 | x8 | x8 | x8 | x8 | %101
 x8 | x8 | x8 | x8 | x8 | x8 | x8 | x8 | x4 E,4- | E,8 | x8 | x8 | x4 E,4- | E,4 z4 | x8 | x8 | %117
 x8 | x8 | x8 | x8 | x8 | x8 | x8 | x8 | x8 | x8 | x8 | D,,8- | x8 | x8 | x8 | E,, z z2 z4 | x8 | %134
 x8 | x8 | x8 | x8 | x8 | x8 | x8 | x8 | x8 | x8 | x8 | B,4 E,4- | x8 | x8 | x8 | x8 | x8 | x8 | %152
 x8 | x8 | x8 | x8 | x8 | x8 | x8 | x8 |1 x8 | x8 :|2 x8 || x8 ||[M:4/4] x8 | x8 | x8 | x8 | x8 | %169
 x8 | x8 | x8 | x8 | x8 | x8 | x8 | x8 | x8 | x8 | x8 | x8 | x8 | x8 | x8 | x8 | x8 | x8 | x8 | %188
 x8 | x8 | x8 | x8 | x8 | x8 | x8 | x8 | x8 | z4 z2 [D,,D,][=C,,=C,] | x8 | x8 | B,4 z4 | =C4 z4 | %202
 x8 | x8 | x8 | x8 | x8 | x8 ||[M:2/2] x8 | x8 | x8 | x8 | x8 | x8 | x8 | x8 | x8 | x8 | x8 | x8 | %220
 x8 | x8 | x8 | x8 | x8 | x8 | x8 | x8 | x8 | x8 | x8 | x8 | x8 | x8 | x8 | x8 | x8 | %237
 (.A,,2 .E,2 .B,2 .[E,A,]2) | x8 | x8 | x8 | x8 | x8 | x8 | x8 | x8 | x8 | x8 | x8 | x8 | x8 | x8 | %252
 x8 | x8 | x8 | x8 | x8 | x8 | x8 | x8 | x8 | x8 | x8 | x8 | x8 | x8 | x8 | x8 | x8 | x8 | x8 | %271
 x8 | x8 | x8 | x8 | x8 | x8 | x8 | x8 | x8 | x8 | x8 | x8 | x8 | x8 | x8 | x8 | x8 | x8 | x8 | %290
 x8 | x8 | x8 | x8 | x8 | x8 | x8 | x8 | x8 | x8 | x8 | x8 | x8 | x8 | x8 | x8 | x8 | x8 | x8 | %309
 x8 | x8 | x8 | x8 | x8 | x8 | x8 | x8 | x8 | x8 | x8 | x8 | x8 | x8 | x8 | x8 | x8 | x8 | x8 | %328
 x8 | x8 | x8 | x8 | x8 | x8 | x8 | x8 | x8 | x8 | x8 | x8 | x8 | x8 | x8 | x8 | x8 | x8 | x8 | %347
 x8 | x8 | x8 | x8 | x8 | x8 | x8 | x8 | x8 | x8 | x8 | x8 | x8 | x8 | x8 | x8 | x8 | x8 | x8 | %366
 x8 | x8 | x8 | x8 | x8 | x8 | x8 | A,,8- | A,,8- | A,,8 | A,,4 E,,4- | [E,,E,]8- | [E,,E,]8- | %379
 [E,,E,]4 x4 | x8 | x8 | x8 | x8 | x8 | x8 | x8 | x8 | x8 | x8 | x8 | x8 | x8 | x8 | x8 | x8 | x8 | %397
 x8 | x8 | x8 | x8 | x8 | x8 | x8 | x8 | x8 | x8 | x8 | x8 | x8 | x8 | x8 | x8 | G,,8- | %414
 G,, z z2 x4 | x8 | x8 | x8 | x8 | x8 | x8 | x8 | x8 | x8 | x8 | x8 | x8 | x6 (F,2 | E,4 (A,,4) | %429
 F,4) x4 | x8 | x8 | x8 | x8 | x8 | x8 | x8 | x8 | x8 | x8 | x8 | x8 | x8 | x8 | x8 | x8 | x8 | %447
 x8 | x8 | x8 | x8 | x8 | x8 |] %453
V:8
 x8 | x8 | x8 | x8 | x8 | x8 | x8 | x8 | x8 | x8 | x8 | x6 (3.B,.B,.B, | x8 | x8 | x8 | x8 | x8 | %17
 x8 | x8 | x8 | x8 |[K:treble] x8 | x8 | x8 | z6 (3.E.A,.E | x8 |[K:bass] x8 | x8 | x8 | x8 | x8 | %31
[K:treble] x8 | x8 | x8 | x8 | x2[K:bass] x6 | x2[K:treble] x2[K:bass] x4 |[K:treble] x8 | x8 | %39
 x8 | x8 | x8 | x8 | x8 | x8 | x8 | x8 | x8 | x8 | x8 | x8 | x8 | x8 | x8 | x8 | x8 | x8 | x8 || %58
[K:D][M:2/2] x8 | x8 | x8 | x8 |: x8 | x8 | x8 | x8 | x8 | x8 | x8 | x8 | z4 (D4 | C4 D4) | %72
 !arpeggio!E,2 z2 z4 | x8 | x8 | x8 | E8- | E2 z2 z4 | x8 | x8 | x8 | E4[K:bass] z4 | x8 | x8 | %84
 x8 | x8 | x8 | x8 | x8 | x8 | x8 | x8 | x8 | x8 | x8 | x8 | x8 | x8 | x8 | [E,A,]2 z2 z4 | x8 | %101
 x8 | x8 | x8 | x8 | x8 | x4[K:treble] x4 | x8 | x8 | !arpeggio![CAc]2 z2 z4 | x8 | x8 | x8 | x8 | %114
 x8 | x8 | (A,2 .F,) z (A,2 .^G,) z | x8 | (A,2 .F,) z (A,2 .^G,) x | x8 | x8 | x8 | %122
 x4[K:bass] x4 | x4 [^E,B,]2 [F,A,]2 | x8 | x8 | x8 | x8 | x8 | x8 | x8 | x8 | x8 | x8 | %134
 x4[K:bass] x4 | x8 | x4[K:treble] E4- | E4 x4 | x8 | x8 | x2 .F z EF^DE | x8 | x8 | x8 | x4 D4 | %145
 [DE]4 z4 | x4 .C.D.C.D | x8 | x8 | x8 | x8 | x4[K:bass] x4 | x8 | x8 | x8 | x8 | x8 | x8 | x8 | %159
 x8 |1 x8 | x8 :|2 x8 || x8 ||[M:4/4] x8 | x8 | x8 |[K:treble] x8 | x8 | x8 | x8 | x8 | x8 | x8 | %174
 x8 | x8 | x8 | x8 | x8 | x8 | x8 | x8 | x8 | x8 | x8 | x8 | x8 | x8 | x8 | x8 | x8 | x8 | x8 | %193
 x6[K:treble] x2 | x8 | x8 |[K:bass] x8 | x6[K:treble] x2 | x8 | x8 | =F4 A,2 (F2 | E4 A,2) x2 | %202
 x8 | x8 | x8 | x8 | x8 | x8 ||[M:2/2] x8 | x8 | x8 | x8 | x8 | x8 | x8 | x8 | x8 | x8 | x8 | F8- | %220
 F8- | F4 x4 | x8 | x8 | x8 | x8 | x8 | (D4 A,2) z2 | x8 | x8 | x8 | x8 | x8 | x8 | x8 | [CE]8 | %236
 [DE]8 | x8 | x4 D4- | D6 z2 | x8 | x8 | x8 | [CE]8 | [_A,_D=F]2 z2 x4 | x8 | x8 | x8 | x8 | x8 | %250
 x8 | x8 | x8 | x8 | x8 | x8 | x8 | x8 | x8 | x8 | x8 | x8 | x8 | x8 | x8 | x8 | x8 | x8 | x8 | %269
 x8 | x8 | x8 | x8 | x8 | x8 | G,3 x5 | (G,4 A,2 B,2) | x8 | x8 | x8 | x8 | x4[K:bass] x4 | x8 | %283
 x8 | x4 .=F,2 .=C,2 | .=F,2 .G,2 .A,2 ._B,2 | x8 | x8 | x8 | x8 | x8 | x6[K:treble] x2 | x8 | x8 | %294
 x8 | x8 | x8 | x8 | x8 | x6[K:bass] x2 | x8 | x8 | x8 | x8 | x8 | x8 | x8 | x8 | x8 | x8 | x8 | %311
 x8 | x8 | =F,4- F,4- | F,4 z4 | =F,8- | F,8- | F,4 x4 | x8 | x8 | x8 | x8 | x8 | x8 | x8 | x8 | %326
 x8 | x8 | z4 =F,4- | F,4- !///-!F,2 =F2 | x8 | =F,4- !///-!F,2 =F2 | x8 | x8 | x8 | =F,8 | =F,8 | %337
 =F,8 | =F,8- | F,8 | x8 | x8 | x8 | x8 | x8 | x8 | x8 | x8 | x8 | x8 | x8 | x8 | x8 | x8 | x8 | %355
 x8 | x8 | x8 | x6[K:bass] x2 | x8 | x8 | x8 | x6[K:treble] x2 | x8 | x8 | x8 | x8 | x8 | x8 | x8 | %370
 x8 | x8 | A,8 | x8 | x8 | x8 | x8 | x4 [DE]4- | [DE]8- | [DE]4 x4 | x8 | x8 | x8 | x8 | x8 | x8 | %386
 x8 | A,8 | A,8 | x4 A,4- | A,2 A,6- | A,2 z2 z4 | x8 | x8 | x8 | x8 | x8 | A,2 z2 z4 | x8 | x8 | %400
 x6[K:treble] x2 | x8 | x8 | x8 | x8 | x8 | x8 | x8 | G8 | !^!G8 | x8 | G8 | x8 | x8 | x8 | x8 | %416
 x8 | x8 | x8 | x8 | x8 | x8 | x8 | A,8- | A,6 A,2- | A,2 x2[K:bass] x4 | x8 | x8 | x8 | x8 | %430
 z4 z2 F2 | E2 x6 | x8 | x4[K:treble] x4 | x8 | x4[K:bass] x4 | x8 | x8 | x8 | x8 | x8 | x8 | x8 | %443
 x8 | x8 | x4[K:treble] x4 | x8 | x8 | x8 | x8 | x8 | x8 | x8 |] %453

